X:4750
T:El Garrotn
R:Marcha
C:Tradicional
S:Msica Tradicional Asturiana, (C) Tello & Tito. Asturies, 2001.
S:http://pagina.de/MusTradAst <telloytito@asturies.org>
A:Asturies
G:Arrg.
Z:Hevia
E:2 Voces
M:2/4
L:1/8
Q:1/4=120
K:C
V:1
z2 E2|GC GC|G4 -|G4|
z2 FG|A2 GF|E4 -|E4|
z2 C2|A2 GF|D2 B,2|C4 -|
C4|z2 E2|GC GC|G4 -|
G4|z2 FG|A2 GF|E4 -|
E4|z2 C2|A2 GF|D2 B,2|
C4 -|C4|z2 DE|F2 F2|
F2 F2|F3 E|DC DE|FG FE|
FG FE|FG FE|DC DE|F2 F2|
F2 F2|F3 E|D2 F2|A4 -|
A2 G2|F2 GF|D2 B,2|C F2 D|
FD FD|EC ED|B,2 D2|C F2 D|
FD FD|EC ED|B,2 D2|C4|
G/c/c/G/ c/c/E/C/|A/c/c/A/ c/c/F/C/|G/c/c/GF/E/F/|AG EC|
G/c/c/G/ c/c/E/C/|A/c/c/A/ c/c/F/C/|G/c/c/GF/E/F/|AG EE|
F2 DB,|C/FD/ F/D/F/D/|E/C/E/D/ B,D|C/FD/ F/D/F/D/|
E/C/E/D/ B,D|G/c/c/G/ c/c/E/C/|A/c/c/A/ c/c/F/C/|G/c/c/GF/E/F/|
AG EC|G/c/c/G/ c/c/E/C/|A/c/c/A/ c/c/F/C/|G/c/c/GF/E/F/|
AG EE|F2 DB,|C/FD/ F/D/F/D/|E/C/E/D/ B,D|
C/FD/ F/D/F/D/|E/C/E/D/ B,D|GG/GG/E/F/|GG/GG/E/F/|
GG/GA/G/F/|^A=A/GG/E/F/|GG/GA/G/F/|^A=A/GG/D/E/|
FF/FF/D/E/|FF/FF/D/E/|FF/FG/F/E/|AG/FF/D/E/|
FF/FG/F/E/|AG/FF/D/E/|FF/GG/D/E/|FF/GG/D/E/|
FF/GG/-G|
V:2
z4|z4|z4|z4|
z4|z4|z4|z4|
z4|z4|z4|z4|
z4|z4|z4|z4|
z4|z4|z4|z4|
z4|z4|z4|z4|
z4|z4|z4|z4|
z4|z4|z4|z4|
z4|z4|z4|z4|
z4|z4|z4|F4 -|
F2 E2|D2 ED|B,2 D2|C A2 F|
AF AF|GE GF|D2 F2|E A2 F|
AF AF|GE GF|D2 F2|C4|
E4|F4|E2 z/2  D/C/D/|FE CC|
E4|F4|E2 z/2  D/C/D/|FE CC|
A2 FD|E/AF/ A/F/A/F/|G/E/G/F/ DF|E/AF/ A/F/A/F/|
G/E/G/F/ DF|E4|F4|E2 z/2  D/C/D/|
FE CC|E4|F4|E2 z/2  D/C/D/|
FE CC|A2 FD|E/AF/ A/F/A/F/|G/E/G/F/ DF|
E/AF/ A/F/A/F/|G/E/G/F/ DF|CC/CC/B,|CC/CC/B,|
CC/CC/B,|CC/CC/B,|CC/CC/B,|CC/CC/B,|
CC/CC/B,|CC/CC/B,|CC/CC/B,|CC/CC/B,|
CC/CC/B,|CC/CC/B,|CC/CC/B,|CC/CC/B,|
CC/CC/-C|
